X:121
T:My Robin is to the greenwood gone
M:6/8
L:1/8
K:F
%%score 1 2
V:1 clef-treble
V:2 clef-bass octave=-1
V:1
D|F>GF [^CE]2D&D3x3|[C(c]B)d A3|F>AF [^CE]2D|
w:My Ro-bin is to the green-wood gone,||
V:2
z|D6|A2B[Fc]2[E^c]&F,3x3|[Dd]3A,2B,|
V:1
[=C=c]AdA3|Adc B>AG|c>BA/G/ F>ED|c2A F>GA&[CF]3D2[CF]|[DG]>F[^CE]D2||
V:2
A2Bc2^c&F,3F3|d6&^F3G3|c3[DA]3&E2C2x2|A,3B,2F,|B>AGF2&G,2A,D2||

